src/assets/new_UI/3d_cube_scan.svg

<svg width="13" height="12" viewBox="0 0 13 12" fill="none" xmlns="http://www.w3.org/2000/svg">
<path d="M1.66699 4.5V3.5C1.66699 2 2.66699 1 4.16699 1H9.16699C10.667 1 11.667 2 11.667 3.5V4.5" stroke="#E31337" stroke-width="0.5" stroke-miterlimit="10" stroke-linecap="round" stroke-linejoin="round"/>
<path d="M1.66699 7.5V8.5C1.66699 10 2.66699 11 4.16699 11H9.16699C10.667 11 11.667 10 11.667 8.5V7.5" stroke="#E31337" stroke-width="0.5" stroke-miterlimit="10" stroke-linecap="round" stroke-linejoin="round"/>
<path d="M4.0166 4.62988L6.6666 6.16489L9.2966 4.63989" stroke="#E31337" stroke-width="0.5" stroke-linecap="round" stroke-linejoin="round"/>
<path d="M6.66699 8.88467V6.15967" stroke="#E31337" stroke-width="0.5" stroke-linecap="round" stroke-linejoin="round"/>
<path d="M6.0471 3.14479L4.44711 4.0348C4.08711 4.2348 3.78711 4.7398 3.78711 5.1548V6.8498C3.78711 7.2648 4.08211 7.7698 4.44711 7.9698L6.0471 8.85978C6.3871 9.04978 6.94711 9.04978 7.29211 8.85978L8.89211 7.9698C9.25211 7.7698 9.55211 7.2648 9.55211 6.8498V5.1548C9.55211 4.7398 9.25711 4.2348 8.89211 4.0348L7.29211 3.14479C6.94711 2.94979 6.3871 2.94979 6.0471 3.14479Z" stroke="#E31337" stroke-width="0.5" stroke-linecap="round" stroke-linejoin="round"/>
</svg>

<svg xmlns="http://www.w3.org/2000/svg" width="13" height="12" fill="none" viewBox="0 0 13 12">
  <path stroke="currentColor" stroke-linecap="round" stroke-linejoin="round" stroke-miterlimit="10" stroke-width=".5" d="M1.667 4.5v-1c0-1.5 1-2.5 2.5-2.5h5c1.5 0 2.5 1 2.5 2.5v1m-10 3v1c0 1.5 1 2.5 2.5 2.5h5c1.5 0 2.5-1 2.5-2.5v-1"/>
  <path stroke="currentColor" stroke-linecap="round" stroke-linejoin="round" stroke-width=".5" d="m4.017 4.63 2.65 1.535 2.63-1.525m-2.63 4.245V6.16"/>
  <path stroke="currentColor" stroke-linecap="round" stroke-linejoin="round" stroke-width=".5" d="m6.047 3.145-1.6.89c-.36.2-.66.705-.66 1.12V6.85c0 .415.295.92.66 1.12l1.6.89c.34.19.9.19 1.245 0l1.6-.89c.36-.2.66-.705.66-1.12V5.155c0-.415-.295-.92-.66-1.12l-1.6-.89c-.345-.195-.905-.195-1.245 0Z"/>
</svg>
